X: 1
T:Garden Of Skye
M:C
L:1/8
Q:80
C:
S:March
K:HP
[| {g}A2{GAG}A3/2B/2{g}c/2e3/2{A}e3/2c/2|
{gBd}B{e}A{gcd}c3/2B/2{G}A2{gcd}ce|
{g}f2{g}f3/2e/2{g}f/2a3/2{f}gf|  !
{gfg}fe{A}e3/2f/2{gef}e2{gcd}ce|
a2{g}ag/2{a}f2a3/2g/2|
{fg}fe{gcd}c{e}B{gcd}c2{g}c3/2B/2|  !
{g}A2{GdGe}A3/2B/2{g}c/2e3/2{g}f3/2c/2|
{gBd}B{e}A{gcd}c3/2B/2{G}A2{g}e3/2f/2|]
{GdG}c2{g}c3/2e/2{g}f2{g}f3/2a/2|  !
{ef}e2{A}e3/2f/2{gef}ecBc|
{gef}e2{A}ea{fg}f2{g}fa|
{ef}e3/2f/2{gef}ec{gBd}B2{gcd}ce|  !
a2{g}ag/2{a}f2a3/2g/2|
{fg}fe{gcd}cB{gcd}c2{g}c3/2B/2|
{g}A2{GdGe}A3/2B/2{g}c/2e3/2{g}f3/2c/2|  !
{gBd}BA{gcd}c3/2B/2{G}A4|]
